Numix-Circle/48x48/apps/addressbook.svg

<?xml version="1.0" encoding="UTF-8" standalone="no"?>
<svg
   xmlns:dc="http://purl.org/dc/elements/1.1/"
   xmlns:cc="http://creativecommons.org/ns#"
   xmlns:rdf="http://www.w3.org/1999/02/22-rdf-syntax-ns#"
   xmlns:svg="http://www.w3.org/2000/svg"
   xmlns="http://www.w3.org/2000/svg"
   xmlns:xlink="http://www.w3.org/1999/xlink"
   xmlns:sodipodi="http://sodipodi.sourceforge.net/DTD/sodipodi-0.dtd"
   xmlns:inkscape="http://www.inkscape.org/namespaces/inkscape"
   viewBox="0 0 48 48"
   id="svg2"
   version="1.1"
   inkscape:version="0.48.4 r9939"
   width="100%"
   height="100%"
   sodipodi:docname="addressbook.svg">
  <metadata
     id="metadata109">
    <rdf:RDF>
      <cc:Work
         rdf:about="">
        <dc:format>image/svg+xml</dc:format>
        <dc:type
           rdf:resource="http://purl.org/dc/dcmitype/StillImage" />
      </cc:Work>
    </rdf:RDF>
  </metadata>
  <sodipodi:namedview
     pagecolor="#ffffff"
     bordercolor="#666666"
     borderopacity="1"
     objecttolerance="10"
     gridtolerance="10"
     guidetolerance="10"
     inkscape:pageopacity="0"
     inkscape:pageshadow="2"
     inkscape:window-width="1280"
     inkscape:window-height="960"
     id="namedview107"
     showgrid="false"
     inkscape:zoom="13.906433"
     inkscape:cx="28.355217"
     inkscape:cy="24.1253"
     inkscape:window-x="0"
     inkscape:window-y="0"
     inkscape:window-maximized="1"
     inkscape:current-layer="svg2" />
  <defs
     id="defs4">
    <linearGradient
       id="linearGradient3764"
       x1="1"
       x2="47"
       gradientUnits="userSpaceOnUse"
       gradientTransform="matrix(0,-1,1,0,-1.5e-6,47.999998)">
      <stop
         stop-color="#e4e4e4"
         stop-opacity="1"
         id="stop7" />
      <stop
         offset="1"
         stop-color="#eee"
         stop-opacity="1"
         id="stop9" />
    </linearGradient>
    <clipPath
       id="clipPath-589420710">
      <g
         transform="translate(0,-1004.3622)"
         id="g12">
        <path
           d="m -24 13 c 0 1.105 -0.672 2 -1.5 2 -0.828 0 -1.5 -0.895 -1.5 -2 0 -1.105 0.672 -2 1.5 -2 0.828 0 1.5 0.895 1.5 2 z"
           transform="matrix(15.333333,0,0,11.5,414.99999,878.8622)"
           fill="#1890d0"
           id="path14" />
      </g>
    </clipPath>
    <clipPath
       id="clipPath-595047701">
      <g
         transform="translate(0,-1004.3622)"
         id="g17">
        <path
           d="m -24 13 c 0 1.105 -0.672 2 -1.5 2 -0.828 0 -1.5 -0.895 -1.5 -2 0 -1.105 0.672 -2 1.5 -2 0.828 0 1.5 0.895 1.5 2 z"
           transform="matrix(15.333333,0,0,11.5,414.99999,878.8622)"
           fill="#1890d0"
           id="path19" />
      </g>
    </clipPath>
    <linearGradient
       inkscape:collect="always"
       xlink:href="#linearGradient3764"
       id="linearGradient3134"
       gradientUnits="userSpaceOnUse"
       gradientTransform="matrix(0,-1,1,0,-1.5e-6,47.999998)"
       x1="1"
       x2="47" />
    <linearGradient
       inkscape:collect="always"
       xlink:href="#linearGradient3764"
       id="linearGradient3142"
       gradientUnits="userSpaceOnUse"
       gradientTransform="matrix(0,-1,1,0,-1.5e-6,47.999998)"
       x1="1"
       x2="47" />
    <linearGradient
       inkscape:collect="always"
       xlink:href="#linearGradient3764"
       id="linearGradient3150"
       gradientUnits="userSpaceOnUse"
       gradientTransform="matrix(0,-1,1,0,-1.5e-6,47.999998)"
       x1="1"
       x2="47" />
    <linearGradient
       inkscape:collect="always"
       xlink:href="#linearGradient3764"
       id="linearGradient3153"
       gradientUnits="userSpaceOnUse"
       gradientTransform="matrix(0,-1,1,0,-1.5e-6,47.999998)"
       x1="1"
       x2="47" />
    <linearGradient
       inkscape:collect="always"
       xlink:href="#linearGradient3764"
       id="linearGradient3156"
       gradientUnits="userSpaceOnUse"
       gradientTransform="matrix(0,-1,1,0,-1.5e-6,47.999998)"
       x1="1"
       x2="47" />
    <linearGradient
       inkscape:collect="always"
       xlink:href="#linearGradient3764"
       id="linearGradient3159"
       gradientUnits="userSpaceOnUse"
       gradientTransform="matrix(0,-1,1,0,-1.5e-6,47.999998)"
       x1="1"
       x2="47" />
    <linearGradient
       inkscape:collect="always"
       xlink:href="#linearGradient3764"
       id="linearGradient3162"
       gradientUnits="userSpaceOnUse"
       gradientTransform="matrix(0,-1,1,0,-1.5e-6,47.999998)"
       x1="1"
       x2="47" />
    <linearGradient
       inkscape:collect="always"
       xlink:href="#linearGradient3764"
       id="linearGradient3165"
       gradientUnits="userSpaceOnUse"
       gradientTransform="matrix(0,-1,1,0,-1.5e-6,47.999998)"
       x1="1"
       x2="47" />
    <linearGradient
       inkscape:collect="always"
       xlink:href="#linearGradient3764"
       id="linearGradient3168"
       gradientUnits="userSpaceOnUse"
       gradientTransform="matrix(0,-1,1,0,-1.5e-6,47.999998)"
       x1="1"
       x2="47" />
    <linearGradient
       inkscape:collect="always"
       xlink:href="#linearGradient3764"
       id="linearGradient3171"
       gradientUnits="userSpaceOnUse"
       gradientTransform="matrix(0,-1,1,0,-1.5e-6,47.999998)"
       x1="1"
       x2="47" />
    <linearGradient
       inkscape:collect="always"
       xlink:href="#linearGradient3764"
       id="linearGradient3177"
       gradientUnits="userSpaceOnUse"
       gradientTransform="matrix(0,-1,1,0,-1.5e-6,47.999998)"
       x1="1"
       x2="47" />
    <linearGradient
       inkscape:collect="always"
       xlink:href="#linearGradient3764"
       id="linearGradient3183"
       gradientUnits="userSpaceOnUse"
       gradientTransform="matrix(0,-1,1,0,-1.5e-6,47.999998)"
       x1="1"
       x2="47" />
    <linearGradient
       inkscape:collect="always"
       xlink:href="#linearGradient3764"
       id="linearGradient3191"
       gradientUnits="userSpaceOnUse"
       gradientTransform="matrix(0,-1,1,0,-1.5e-6,47.999998)"
       x1="1"
       x2="47" />
    <linearGradient
       inkscape:collect="always"
       xlink:href="#linearGradient3764"
       id="linearGradient3198"
       gradientUnits="userSpaceOnUse"
       gradientTransform="matrix(0,-1,1,0,-1.5e-6,47.999998)"
       x1="1"
       x2="47" />
    <linearGradient
       inkscape:collect="always"
       xlink:href="#linearGradient3764"
       id="linearGradient3205"
       gradientUnits="userSpaceOnUse"
       gradientTransform="matrix(0,-1,1,0,-1.5e-6,47.999998)"
       x1="1"
       x2="47" />
    <linearGradient
       inkscape:collect="always"
       xlink:href="#linearGradient3764"
       id="linearGradient3212"
       gradientUnits="userSpaceOnUse"
       gradientTransform="matrix(0,-1,1,0,-1.5e-6,47.999998)"
       x1="1"
       x2="47" />
    <linearGradient
       inkscape:collect="always"
       xlink:href="#linearGradient3764"
       id="linearGradient3219"
       gradientUnits="userSpaceOnUse"
       gradientTransform="matrix(0,-1,1,0,-1.5e-6,47.999998)"
       x1="1"
       x2="47" />
  </defs>
  <g
     id="g21">
    <path
       d="m 36.31 5 c 5.859 4.062 9.688 10.831 9.688 18.5 c 0 12.426 -10.07 22.5 -22.5 22.5 c -7.669 0 -14.438 -3.828 -18.5 -9.688 c 1.037 1.822 2.306 3.499 3.781 4.969 c 4.085 3.712 9.514 5.969 15.469 5.969 c 12.703 0 23 -10.298 23 -23 c 0 -5.954 -2.256 -11.384 -5.969 -15.469 c -1.469 -1.475 -3.147 -2.744 -4.969 -3.781 z m 4.969 3.781 c 3.854 4.113 6.219 9.637 6.219 15.719 c 0 12.703 -10.297 23 -23 23 c -6.081 0 -11.606 -2.364 -15.719 -6.219 c 4.16 4.144 9.883 6.719 16.219 6.719 c 12.703 0 23 -10.298 23 -23 c 0 -6.335 -2.575 -12.06 -6.719 -16.219 z"
       opacity="0.05"
       id="path23" />
    <path
       d="m 41.28 8.781 c 3.712 4.085 5.969 9.514 5.969 15.469 c 0 12.703 -10.297 23 -23 23 c -5.954 0 -11.384 -2.256 -15.469 -5.969 c 4.113 3.854 9.637 6.219 15.719 6.219 c 12.703 0 23 -10.298 23 -23 c 0 -6.081 -2.364 -11.606 -6.219 -15.719 z"
       opacity="0.1"
       id="path25" />
    <path
       d="m 31.25 2.375 c 8.615 3.154 14.75 11.417 14.75 21.13 c 0 12.426 -10.07 22.5 -22.5 22.5 c -9.708 0 -17.971 -6.135 -21.12 -14.75 a 23 23 0 0 0 44.875 -7 a 23 23 0 0 0 -16 -21.875 z"
       opacity="0.2"
       id="path27" />
  </g>
  <path
     style="fill:url(#linearGradient3219);fill-opacity:1"
     d="M 24,1 C 18.26762,1 13.027344,3.0939267 9,6.5625 l 0,34.875 C 13.027344,44.906073 18.26762,47 24,47 29.733656,47 34.975005,44.880939 39,41.40625 L 39,33 39,24 39,15 39,6.5625 C 34.972656,3.0939267 29.73238,1 24,1 z"
     id="path31"
     inkscape:connector-curvature="0"
     sodipodi:nodetypes="sccscccccs" />
  <g
     id="g33" />
  <g
     id="g35">
    <g
       clip-path="url(#clipPath-589420710)"
       id="g37">
      <g
         transform="translate(1,1)"
         id="g39">
        <g
           id="g41"
           opacity="0.1">
          <!-- color: #eeeeee -->
          <g
             id="g43">
            <path
               d="M 9 0 L 0 0 L 0 48 L 9 48 M 9 0 "
               id="path45"
               stroke="none"
               fill-rule="nonzero"
               fill-opacity="1"
               fill="#000" />
            <path
               d="m 39 6.563 c 4.898 4.219 8 10.469 8 17.438 c 0 6.969 -3.102 13.219 -8 17.438 m 0 -34.875"
               id="path47"
               stroke="none"
               fill-rule="nonzero"
               fill-opacity="1"
               fill="#000" />
            <path
               d="m 39 0 l 0 15 l 9 0 c 0 -2 0 -14 0 -15 c -2 0 -8.535 0 -9 0 m 0 0"
               id="path49"
               stroke="none"
               fill-rule="nonzero"
               fill-opacity="1"
               fill="#000" />
            <path
               d="m 39 15 l 0 9 l 9 0 c 0 -3.199 0 -8 0 -9 m -9 0"
               id="path51"
               stroke="none"
               fill-rule="nonzero"
               fill-opacity="1"
               fill="#000" />
            <path
               d="m 39 24 l 0 9 l 9 0 l 0 -9 m -9 0"
               id="path53"
               stroke="none"
               fill-rule="nonzero"
               fill-opacity="1"
               fill="#000" />
            <path
               d="m 39 33 l 0 15 l 9 0 l 0 -15 m -9 0"
               id="path55"
               stroke="none"
               fill-rule="nonzero"
               fill-opacity="1"
               fill="#000" />
            <path
               d="m 23.13 26.688 l -3.801 -4.578 l -0.457 -4.68 l 5.488 -1.508 l 3.617 1.105 l 1.023 2.973 l -0.742 1.754 l -4.422 4.98 m -0.707 -0.047"
               id="path57"
               stroke="none"
               fill-rule="nonzero"
               fill-opacity="0.941"
               fill="#000" />
            <path
               d="m 14 33 l 20 0 l 0 -1 c -0.523 -2.309 -3.207 -5.504 -6.551 -6.871 l -2.184 2.121 l -0.691 -0.457 l -1.918 -0.043 l -0.613 0.707 l -2.32 -2.301 c -2.559 1.125 -5.195 4.133 -5.723 6.844 m 0 1"
               id="path59"
               stroke="none"
               fill-rule="nonzero"
               fill-opacity="1"
               fill="#000" />
            <path
               d="m 23.574 14.797 l 0.004 0 c 2.219 0 4.02 2.293 4.02 5.121 l 0 0.004 c 0 2.828 -1.801 5.117 -4.02 5.117 l -0.004 0 c -2.223 0 -4.02 -2.289 -4.02 -5.117 l 0 -0.004 c 0 -2.828 1.801 -5.121 4.02 -5.121 m 0 0"
               id="path61"
               stroke="none"
               fill-rule="nonzero"
               fill-opacity="1"
               fill="#000" />
            <path
               d="m 26.375 23.879 c 0.43 -0.422 1.504 -1.293 1.625 -1.879 l 0.801 -2 l -0.809 -1.383 l -6.406 -2.383 l -1.043 0.883 l -1.727 2.25 l 0.426 2.535 l 0.223 0.648 l 1.305 1.324 m 5.605 0.004"
               id="path63"
               stroke="none"
               fill-rule="nonzero"
               fill-opacity="1"
               fill="#000" />
            <path
               d="m 19.5 22.566 l 0 -3.133 c 0.32 -1.367 1.645 -2.75 2.301 -2.734 c 1.129 0.145 1.918 1.141 2.59 2.109 c 0.672 0.801 3.059 0.688 3.609 -0.078 c 0 1.168 0 2.102 0 3.27 c 0.629 -0.242 0.867 -1.195 1 -2 c 0 -9.156 -11 -9.293 -11 -0.566 c 0.094 1.086 0.867 2.617 1.5 3.133 m 0 0"
               id="path65"
               stroke="none"
               fill-rule="nonzero"
               fill-opacity="1"
               fill="#000" />
            <path
               d="m 23.578 26.766 l 2.797 -2.898 l 1.398 1.449 l -2.801 2.898 m -1.395 -1.449"
               id="path67"
               stroke="none"
               fill-rule="nonzero"
               fill-opacity="1"
               fill="#000" />
            <path
               d="m 20.781 23.871 l 2.797 2.898 l -1.398 1.449 l -2.797 -2.902 m 1.398 -1.445"
               id="path69"
               stroke="none"
               fill-rule="nonzero"
               fill-opacity="1"
               fill="#000" />
          </g>
        </g>
      </g>
    </g>
  </g>
  <path
     style="fill:#45a3eb;fill-opacity:1;fill-rule:nonzero;stroke:none"
     d="M 9 6.5625 C 4.1027182 10.780313 1 17.02938 1 24 C 1 30.97062 4.1027182 37.219687 9 41.4375 L 9 6.5625 z "
     id="path77" />
  <path
     style="fill:#ec667f;fill-opacity:1;fill-rule:nonzero;stroke:none"
     d="M 39 33 L 39 41.4375 C 41.648933 39.156091 43.764988 36.261935 45.15625 33 L 39 33 z "
     id="path87" />
  <path
     style="fill:#f8e57d;fill-opacity:1;fill-rule:nonzero;stroke:none"
     d="M 39 6.5625 L 39 15 L 45.15625 15 C 43.764988 11.738065 41.648933 8.8439093 39 6.5625 z "
     id="path81" />
  <path
     style="fill:#59e394;fill-opacity:1;fill-rule:nonzero;stroke:none"
     d="M 39 15 L 39 24 L 47 24 C 47 20.799779 46.337118 17.768649 45.15625 15 L 39 15 z "
     id="path83" />
  <path
     style="fill:#36c7d6;fill-opacity:1;fill-rule:nonzero;stroke:none"
     d="M 39 24 L 39 33 L 45.15625 33 C 46.337118 30.231351 47 27.200221 47 24 L 39 24 z "
     id="path85" />
  <path
     style="fill:#cf8e8e;fill-opacity:0.94100001;fill-rule:nonzero;stroke:none"
     inkscape:connector-curvature="0"
     id="path89"
     d="M 23.13,26.688 19.329,22.11 18.872,17.43 24.36,15.922 27.977,17.027 29,20 l -0.742,1.754 -4.422,4.98 m -0.707,-0.047" />
  <path
     style="fill:#cf3528;fill-opacity:1;fill-rule:nonzero;stroke:none"
     inkscape:connector-curvature="0"
     id="path91"
     d="m 14,33 20,0 0,-1 c -0.523,-2.309 -3.207,-5.504 -6.551,-6.871 l -2.184,2.121 -0.691,-0.457 -1.918,-0.043 -0.613,0.707 -2.32,-2.301 C 17.164,26.281 14.528,29.289 14,32 m 0,1" />
  <path
     style="fill:#ffcccc;fill-opacity:1;fill-rule:nonzero;stroke:none"
     inkscape:connector-curvature="0"
     id="path93"
     d="m 23.574,14.797 0.004,0 c 2.219,0 4.02,2.293 4.02,5.121 l 0,0.004 c 0,2.828 -1.801,5.117 -4.02,5.117 l -0.004,0 c -2.223,0 -4.02,-2.289 -4.02,-5.117 l 0,-0.004 c 0,-2.828 1.801,-5.121 4.02,-5.121 m 0,0" />
  <path
     style="fill:#ffcccc;fill-opacity:1;fill-rule:nonzero;stroke:none"
     inkscape:connector-curvature="0"
     id="path95"
     d="M 26.375,23.879 C 26.805,23.457 27.879,22.586 28,22 l 0.801,-2 -0.809,-1.383 -6.406,-2.383 -1.043,0.883 -1.727,2.25 0.426,2.535 0.223,0.648 1.305,1.324 m 5.605,0.004" />
  <path
     style="fill:#cf3628;fill-opacity:1;fill-rule:nonzero;stroke:none"
     inkscape:connector-curvature="0"
     id="path97"
     d="m 19.5,22.566 0,-3.133 c 0.32,-1.367 1.645,-2.75 2.301,-2.734 1.129,0.145 1.918,1.141 2.59,2.109 0.672,0.801 3.059,0.688 3.609,-0.078 0,1.168 0,2.102 0,3.27 0.629,-0.242 0.867,-1.195 1,-2 0,-9.156 -11,-9.293 -11,-0.566 0.094,1.086 0.867,2.617 1.5,3.133 m 0,0" />
  <path
     style="fill:#b2d4cf;fill-opacity:1;fill-rule:nonzero;stroke:none"
     inkscape:connector-curvature="0"
     id="path99"
     d="m 23.578,26.766 2.797,-2.898 1.398,1.449 -2.801,2.898 m -1.395,-1.449" />
  <path
     style="fill:#b2d4cf;fill-opacity:1;fill-rule:nonzero;stroke:none"
     inkscape:connector-curvature="0"
     id="path101"
     d="m 20.781,23.871 2.797,2.898 -1.398,1.449 -2.797,-2.902 m 1.398,-1.445" />
  <g
     id="g103">
    <path
       d="m 40.03 7.531 c 3.712 4.084 5.969 9.514 5.969 15.469 0 12.703 -10.297 23 -23 23 c -5.954 0 -11.384 -2.256 -15.469 -5.969 4.178 4.291 10.01 6.969 16.469 6.969 c 12.703 0 23 -10.298 23 -23 0 -6.462 -2.677 -12.291 -6.969 -16.469 z"
       id="path105"
       opacity="0.1" />
  </g>
</svg>

<svg xmlns="http://www.w3.org/2000/svg" viewBox="0 0 48 48"><defs><clipPath id="clipPath-589420710"><g transform="translate(0,-1004.3622)"><path d="m -24 13 c 0 1.105 -0.672 2 -1.5 2 -0.828 0 -1.5 -0.895 -1.5 -2 0 -1.105 0.672 -2 1.5 -2 0.828 0 1.5 0.895 1.5 2 z" transform="matrix(15.333333,0,0,11.5,414.99999,878.8622)" fill="#1890d0"/></g></clipPath><clipPath><g transform="translate(0,-1004.3622)"><path d="m -24 13 c 0 1.105 -0.672 2 -1.5 2 -0.828 0 -1.5 -0.895 -1.5 -2 0 -1.105 0.672 -2 1.5 -2 0.828 0 1.5 0.895 1.5 2 z" transform="matrix(15.333333,0,0,11.5,414.99999,878.8622)" fill="#1890d0"/></g></clipPath><linearGradient id="linearGradient3219" gradientUnits="userSpaceOnUse" gradientTransform="matrix(0,-1,1,0,-1.5e-6,47.999998)" x1="1" x2="47"><stop stop-color="#e4e4e4" stop-opacity="1"/><stop offset="1" stop-color="#eee" stop-opacity="1"/></linearGradient></defs><g><path d="m 36.31 5 c 5.859 4.062 9.688 10.831 9.688 18.5 c 0 12.426 -10.07 22.5 -22.5 22.5 c -7.669 0 -14.438 -3.828 -18.5 -9.688 c 1.037 1.822 2.306 3.499 3.781 4.969 c 4.085 3.712 9.514 5.969 15.469 5.969 c 12.703 0 23 -10.298 23 -23 c 0 -5.954 -2.256 -11.384 -5.969 -15.469 c -1.469 -1.475 -3.147 -2.744 -4.969 -3.781 z m 4.969 3.781 c 3.854 4.113 6.219 9.637 6.219 15.719 c 0 12.703 -10.297 23 -23 23 c -6.081 0 -11.606 -2.364 -15.719 -6.219 c 4.16 4.144 9.883 6.719 16.219 6.719 c 12.703 0 23 -10.298 23 -23 c 0 -6.335 -2.575 -12.06 -6.719 -16.219 z" opacity="0.05"/><path d="m 41.28 8.781 c 3.712 4.085 5.969 9.514 5.969 15.469 c 0 12.703 -10.297 23 -23 23 c -5.954 0 -11.384 -2.256 -15.469 -5.969 c 4.113 3.854 9.637 6.219 15.719 6.219 c 12.703 0 23 -10.298 23 -23 c 0 -6.081 -2.364 -11.606 -6.219 -15.719 z" opacity="0.1"/><path d="m 31.25 2.375 c 8.615 3.154 14.75 11.417 14.75 21.13 c 0 12.426 -10.07 22.5 -22.5 22.5 c -9.708 0 -17.971 -6.135 -21.12 -14.75 a 23 23 0 0 0 44.875 -7 a 23 23 0 0 0 -16 -21.875 z" opacity="0.2"/></g><path d="m 24 1 c -5.732 0 -10.973 2.094 -15 5.563 l 0 34.875 c 4.03 3.469 9.268 5.563 15 5.563 5.734 0 10.975 -2.119 15 -5.594 l 0 -8.406 0 -9 0 -9 0 -8.438 c -4.03 -3.469 -9.268 -5.563 -15 -5.563 z" fill="url(#linearGradient3219)" fill-opacity="1"/><g><g clip-path="url(#clipPath-589420710)"><g transform="translate(1,1)"><g opacity="0.1"><!-- color: #eeeeee --><g><path d="M 9 0 L 0 0 L 0 48 L 9 48 M 9 0 " stroke="none" fill-rule="nonzero" fill-opacity="1" fill="#000"/><path d="m 39 6.563 c 4.898 4.219 8 10.469 8 17.438 c 0 6.969 -3.102 13.219 -8 17.438 m 0 -34.875" stroke="none" fill-rule="nonzero" fill-opacity="1" fill="#000"/><path d="m 39 0 l 0 15 l 9 0 c 0 -2 0 -14 0 -15 c -2 0 -8.535 0 -9 0 m 0 0" stroke="none" fill-rule="nonzero" fill-opacity="1" fill="#000"/><path d="m 39 15 l 0 9 l 9 0 c 0 -3.199 0 -8 0 -9 m -9 0" stroke="none" fill-rule="nonzero" fill-opacity="1" fill="#000"/><path d="m 39 24 l 0 9 l 9 0 l 0 -9 m -9 0" stroke="none" fill-rule="nonzero" fill-opacity="1" fill="#000"/><path d="m 39 33 l 0 15 l 9 0 l 0 -15 m -9 0" stroke="none" fill-rule="nonzero" fill-opacity="1" fill="#000"/><path d="m 23.13 26.688 l -3.801 -4.578 l -0.457 -4.68 l 5.488 -1.508 l 3.617 1.105 l 1.023 2.973 l -0.742 1.754 l -4.422 4.98 m -0.707 -0.047" stroke="none" fill-rule="nonzero" fill-opacity="0.941" fill="#000"/><path d="m 14 33 l 20 0 l 0 -1 c -0.523 -2.309 -3.207 -5.504 -6.551 -6.871 l -2.184 2.121 l -0.691 -0.457 l -1.918 -0.043 l -0.613 0.707 l -2.32 -2.301 c -2.559 1.125 -5.195 4.133 -5.723 6.844 m 0 1" stroke="none" fill-rule="nonzero" fill-opacity="1" fill="#000"/><path d="m 23.574 14.797 l 0.004 0 c 2.219 0 4.02 2.293 4.02 5.121 l 0 0.004 c 0 2.828 -1.801 5.117 -4.02 5.117 l -0.004 0 c -2.223 0 -4.02 -2.289 -4.02 -5.117 l 0 -0.004 c 0 -2.828 1.801 -5.121 4.02 -5.121 m 0 0" stroke="none" fill-rule="nonzero" fill-opacity="1" fill="#000"/><path d="m 26.375 23.879 c 0.43 -0.422 1.504 -1.293 1.625 -1.879 l 0.801 -2 l -0.809 -1.383 l -6.406 -2.383 l -1.043 0.883 l -1.727 2.25 l 0.426 2.535 l 0.223 0.648 l 1.305 1.324 m 5.605 0.004" stroke="none" fill-rule="nonzero" fill-opacity="1" fill="#000"/><path d="m 19.5 22.566 l 0 -3.133 c 0.32 -1.367 1.645 -2.75 2.301 -2.734 c 1.129 0.145 1.918 1.141 2.59 2.109 c 0.672 0.801 3.059 0.688 3.609 -0.078 c 0 1.168 0 2.102 0 3.27 c 0.629 -0.242 0.867 -1.195 1 -2 c 0 -9.156 -11 -9.293 -11 -0.566 c 0.094 1.086 0.867 2.617 1.5 3.133 m 0 0" stroke="none" fill-rule="nonzero" fill-opacity="1" fill="#000"/><path d="m 23.578 26.766 l 2.797 -2.898 l 1.398 1.449 l -2.801 2.898 m -1.395 -1.449" stroke="none" fill-rule="nonzero" fill-opacity="1" fill="#000"/><path d="m 20.781 23.871 l 2.797 2.898 l -1.398 1.449 l -2.797 -2.902 m 1.398 -1.445" stroke="none" fill-rule="nonzero" fill-opacity="1" fill="#000"/></g></g></g></g></g><path d="m 9 6.563 c -4.897 4.218 -8 10.467 -8 17.438 c 0 6.971 3.103 13.22 8 17.438 l 0 -34.875 z" fill="#45a3eb" fill-rule="nonzero" stroke="none" fill-opacity="1"/><path d="m 39 33 l 0 8.438 c 2.649 -2.281 4.765 -5.176 6.156 -8.438 l -6.156 0 z" fill="#ec667f" fill-rule="nonzero" stroke="none" fill-opacity="1"/><path d="m 39 6.563 l 0 8.438 l 6.156 0 c -1.391 -3.262 -3.507 -6.156 -6.156 -8.438 z" fill="#f8e57d" fill-rule="nonzero" stroke="none" fill-opacity="1"/><path d="m 39 15 l 0 9 l 8 0 c 0 -3.2 -0.663 -6.231 -1.844 -9 l -6.156 0 z" fill="#59e394" fill-rule="nonzero" stroke="none" fill-opacity="1"/><path d="m 39 24 l 0 9 l 6.156 0 c 1.181 -2.769 1.844 -5.8 1.844 -9 l -8 0 z" fill="#36c7d6" fill-rule="nonzero" stroke="none" fill-opacity="1"/><path d="M 23.13,26.688 19.329,22.11 18.872,17.43 24.36,15.922 27.977,17.027 29,20 l -0.742,1.754 -4.422,4.98 m -0.707,-0.047" fill="#cf8e8e" fill-rule="nonzero" stroke="none" fill-opacity="0.941"/><path d="m 14,33 20,0 0,-1 c -0.523,-2.309 -3.207,-5.504 -6.551,-6.871 l -2.184,2.121 -0.691,-0.457 -1.918,-0.043 -0.613,0.707 -2.32,-2.301 C 17.164,26.281 14.528,29.289 14,32 m 0,1" fill="#cf3528" fill-rule="nonzero" stroke="none" fill-opacity="1"/><path d="m 23.574 14.797 0.004 0 c 2.219 0 4.02 2.293 4.02 5.121 l 0 0.004 c 0 2.828 -1.801 5.117 -4.02 5.117 l -0.004 0 c -2.223 0 -4.02 -2.289 -4.02 -5.117 l 0 -0.004 c 0 -2.828 1.801 -5.121 4.02 -5.121 m 0 0" fill="#fcc" fill-rule="nonzero" stroke="none" fill-opacity="1"/><path d="M 26.375,23.879 C 26.805,23.457 27.879,22.586 28,22 l 0.801,-2 -0.809,-1.383 -6.406,-2.383 -1.043,0.883 -1.727,2.25 0.426,2.535 0.223,0.648 1.305,1.324 m 5.605,0.004" fill="#fcc" fill-rule="nonzero" stroke="none" fill-opacity="1"/><path d="m 19.5 22.566 0 -3.133 c 0.32 -1.367 1.645 -2.75 2.301 -2.734 1.129 0.145 1.918 1.141 2.59 2.109 0.672 0.801 3.059 0.688 3.609 -0.078 0 1.168 0 2.102 0 3.27 0.629 -0.242 0.867 -1.195 1 -2 0 -9.156 -11 -9.293 -11 -0.566 0.094 1.086 0.867 2.617 1.5 3.133 m 0 0" fill="#cf3628" fill-rule="nonzero" stroke="none" fill-opacity="1"/><path d="m 23.578 26.766 2.797 -2.898 1.398 1.449 -2.801 2.898 m -1.395 -1.449" fill="#b2d4cf" fill-rule="nonzero" stroke="none" fill-opacity="1"/><path d="m 20.781 23.871 2.797 2.898 -1.398 1.449 -2.797 -2.902 m 1.398 -1.445" fill="#b2d4cf" fill-rule="nonzero" stroke="none" fill-opacity="1"/><g><path d="m 40.03 7.531 c 3.712 4.084 5.969 9.514 5.969 15.469 0 12.703 -10.297 23 -23 23 c -5.954 0 -11.384 -2.256 -15.469 -5.969 4.178 4.291 10.01 6.969 16.469 6.969 c 12.703 0 23 -10.298 23 -23 0 -6.462 -2.677 -12.291 -6.969 -16.469 z" opacity="0.1"/></g></svg>
